gbc/_inc/system.svg

<svg xmlns="http://www.w3.org/2000/svg"><g fill="#fff"><path d="m573.944.968h26.056l-36.734 57.146-5.959 44.582h-23.547l6.901-50.87-23.547-50.858h25.43l12.563 28.89z"/><path d="m299.546 62.507h31.074l3.141-22.605h-30.764l2.203-16.329h35.781l3.461-22.605h-59.34l-14.129 101.728h59.022l3.141-22.614h-35.79z"/><path d="m118.703 52.454 7.85-21.033 2.514 21.033h-10.361zm-8.476 20.094h21.347l3.772 30.139h38.614l17.898-55.257 8.792 55.257h20.409l22.605-58.395 3.768 58.395h22.602l-6.279-101.722h-27.001l-21.039 53.685-8.164-53.685h-24.174l-27.629 83.513-10.361-83.513h-30.139l-33.597 84.452 4.396-32.963h-40.82l-2.827 20.091h17.898l-1.258 6.907c-3.138 1.882-10.358 2.199-13.185 2.199-2.824 0-23.86-1.882-22.919-24.49.935-22.602 31.074-43.639 66.865-32.022l3.457-21.664c-23.863-8.161-86.533-3.593-92.936 52.43-3.765 32.967 26.377 48.665 46.468 48.354 11.616.628 24.805-3.768 29.512-6.282l-1.569 4.71h23.863l11.616-30.139z"/><path d="m491.682.029c-16.326-.63-39.875 8.79-47.723 46.779-7.848 37.987 13.185 53.372 32.652 55.885 19.467 2.511 46.782-9.733 51.803-46.151 5.03-36.421-12.878-55.571-36.732-56.513zm-2.507 21.664c6.593 0 20.719 4.396 17.264 30.764-3.451 26.373-19.777 29.514-25.742 28.887-5.969-.631-18.212-4.71-14.758-28.887 3.461-24.171 16.33-31.081 23.242-30.764z"/><path d="m392.467 39.902h13.188c9.731 0 11.617-6.279 11.927-8.789.314-2.513-2.51-7.537-7.531-7.537h-15.384l-2.191 16.326zm-5.651 40.186h17.898c9.73 0 11.927-7.534 12.241-10.047.314-2.51-2.511-7.534-7.534-7.534h-20.092l-2.51 17.581zm-26.365 22.605 14.13-101.722h43.324c10.364 0 25.432 11.933 23.55 27.942-1.883 16.013-6.907 16.957-10.362 19.467 5.341 4.707 10.675 12.241 8.479 26.371-2.2 14.13-13.816 27.942-34.221 27.942h-44.897z"/><path d="m284.502 135.059c-.911-2.761-3.319-5.392-3.319-5.392s-3.615-4.694-10.72-6.297c-6.083-1.273-10.862 1.409-10.862 1.409s-4.339 1.738-7.601 5.335c-5.195 4.999-6.689 12.298-6.689 12.298s-1.991 6.354 1.162 11.387l3.427 4.146c4.837 4.037 10.005 4.447 10.005 4.447s4.173.941 9.04-.329c4.254-.86 7.35-2.96 7.35-2.96s7.048-3.895 8.982-11.854zm-10.977 13.237s-2.815 4.921-9.006 4.338c-7.269-.745-8.123-7.129-8.123-7.129s-.998-4.698 3.479-8.789c4.535-3.811 9.26-3.232 9.26-3.232s3.177.302 4.81 5.555c2.1 6.689-.42 9.257-.42 9.257"/><path d="m307.991 148.38c-2.326-.513-6.053.441-6.053.441s-5.192 1.907-5.995 1.879c-.305-.44-.965-8.928-.775-12.325.111-5.998-.39-10.889-.39-10.889s-.247-5.778-3.343-9.203c-3.647-3.678-6.191-2.1-7.654-1.219-3.512 3.153-1.88 6.991-1.88 6.991l1.825 5.172s.884 2.211.776 5.829l.772 12.19c0 1.632 1.328 12.603 1.328 12.603s.136 3.566 3.563 4.2c3.512.582 6.964-1.162 8.43-1.853 1.464-.688 3.398-1.297 3.398-1.297s1.605-.359 3.207-.495c3.759-.362 5.111-1.023 5.111-1.023s1.454-.22 2.435-1.605c.978-1.385 2.16-7.875-4.755-9.396"/><path d="m246.473 153.796c-2.471-.739-5.304-.247-5.304-.247s-8.017.772-12.19-.112c-6.466-1.131-6.249-8.098-6.249-8.098s-.217-4.617 3.678-10.862c4.81-7.712 10.117-9.094 10.117-9.094s1.322-.495 2.568.166c.775 4.474 5.111 4.447 5.111 4.447s6.249.417 5.941-7.154c-.718-6.221-6.714-7.075-9.23-7.657-7.54-1.355-12.437 2.682-12.437 2.682s-5.057 2.734-11.109 12.268c-4.122 5.914-4.617 10.56-4.617 10.56s-.497 1.105-.304 6.026c-.109 3.841 1.33 6.632 1.33 6.632s2.182 6.61 9.091 9.317c4.2 1.741 10.337 1.713 10.337 1.713s5.941-.084 10.5-.331c2.489.193 3.678-1.108 3.678-1.108s2.788-1.822 2.513-5.002c0 0-.54-3.283-3.424-4.146"/><path d="m346.88 133.593c-4.834-7.902-13.348-9.091-13.348-9.091s-2.71-.914-8.512-.142c-10.889 2.076-14.676 10.449-14.676 10.449s-3.898 6.134-2.35 13.571l4.758 9.396c3.509 3.289 4.945 3.289 5.166 3.485 4.643 2.1 10.032.884 10.032.884s6.801-.664 13.019-5.501c4.972-3.648 7.13-9.009 7.13-9.009l.661-7.196zm-13.237 16.139c-7.82 4.701-12.744-.441-12.744-.441s-2.182-1.439-2.653-5.805c-.335-5.057 4.701-7.682 4.701-7.682s2.652-1.632 5.968-1.382c3.316.248 4.363.028 7.049 2.019 2.54 2.293 2.374 3.977 2.374 3.977s.914 5.696-4.695 9.314"/><path d="m348.096 147.635s.166 4.42-.525 5.5c-.939 2.016-.8 3.977-.8 3.977s-.639 5.971 6.276 6.964c4.749-.027 5.328-3.98 5.413-5.667.274-1.324.166-7.488.166-7.488l6.164 5.029s4.475 3.76 7.106 5.941c2.736 2.155 3.424 2.544 3.424 2.544s.582.688 2.679.44c1.69.03 3.238-1.493 3.238-1.493s1.958-1.433 2.456-3.95c.606-2.984-1.714-4.45-1.714-4.45s-8.563-6.91-14.368-11.665c3.895-2.127 5.775-3.59 5.775-3.59s5.419-3.594 6.578-9.094c1.605-6.056-2.957-8.43-2.957-8.43s-2.848-2.043-5.25-3.123c-6.056-2.957-11.692-2.351-11.692-2.351s-8.014-.552-13.236 5.89c-2.405 3.123-.912 7.214-.912 7.214s.296.655.966 3.757c1.34 6.245 1.213 14.045 1.213 14.045zm10.503-12.274-.525-7.211s5.057-.112 7.157.247c4.148.634 3.925 1.798 3.925 1.798s-.139 1.464-3.289 2.903c-3.424 1.656-7.268 2.263-7.268 2.263"/></g></svg>

<?xml version="1.0" encoding="utf-8"?>
<svg id="svg2" version="1.1" xmlns="http://www.w3.org/2000/svg">
  <g>
    <polygon id="_43443024" points="573.944 0.968 600 0.968 563.266 58.114 557.307 102.696 533.76 102.696 540.661 51.826 517.114 0.968 542.544 0.968 555.107 29.858" style="fill: rgb(255, 255, 255);"/>
    <polygon id="_43441624" points="299.546 62.507 330.62 62.507 333.761 39.902 302.997 39.902 305.2 23.573 340.981 23.573 344.442 0.968 285.102 0.968 270.973 102.696 329.995 102.696 333.136 80.082 297.346 80.082" style="fill: rgb(255, 255, 255);"/>
    <path id="_43775888" d="M 118.703 52.454 L 126.553 31.421 L 129.067 52.454 L 118.706 52.454 Z M 110.227 72.548 L 131.574 72.548 L 135.346 102.687 L 173.96 102.687 L 191.858 47.43 L 200.65 102.687 L 221.059 102.687 L 243.664 44.292 L 247.432 102.687 L 270.034 102.687 L 263.755 0.965 L 236.754 0.965 L 215.715 54.65 L 207.551 0.965 L 183.377 0.965 L 155.748 84.478 L 145.387 0.965 L 115.248 0.965 L 81.651 85.417 L 86.047 52.454 L 45.227 52.454 L 42.4 72.545 L 60.298 72.545 L 59.04 79.452 C 55.902 81.334 48.682 81.651 45.855 81.651 C 43.031 81.651 21.995 79.769 22.936 57.161 C 23.871 34.559 54.01 13.522 89.801 25.139 L 93.258 3.475 C 69.395 -4.686 6.725 -0.118 0.322 55.905 C -3.443 88.872 26.699 104.57 46.79 104.259 C 58.406 104.887 71.595 100.491 76.302 97.977 L 74.733 102.687 L 98.596 102.687 L 110.212 72.548 Z" style="fill: rgb(255, 255, 255);"/>
    <path id="_44102912" d="M 491.682 0.029 C 475.356 -0.601 451.807 8.819 443.959 46.808 C 436.111 84.795 457.144 100.18 476.611 102.693 C 496.078 105.204 523.393 92.96 528.414 56.542 C 533.444 20.121 515.536 0.971 491.682 0.029 Z M 489.175 21.693 C 495.768 21.693 509.894 26.089 506.439 52.457 C 502.988 78.83 486.662 81.971 480.697 81.344 C 474.728 80.713 462.485 76.634 465.939 52.457 C 469.4 28.286 482.269 21.376 489.181 21.693 Z" style="fill: rgb(255, 255, 255);"/>
    <path id="_44104296" d="M 392.467 39.902 L 405.655 39.902 C 415.386 39.902 417.272 33.623 417.582 31.113 C 417.896 28.6 415.072 23.576 410.051 23.576 L 394.667 23.576 L 392.476 39.902 Z M 386.816 80.088 L 404.714 80.088 C 414.444 80.088 416.641 72.554 416.955 70.041 C 417.269 67.531 414.444 62.507 409.421 62.507 L 389.329 62.507 L 386.819 80.088 Z M 360.451 102.693 L 374.581 0.971 L 417.905 0.971 C 428.269 0.971 443.337 12.904 441.455 28.913 C 439.572 44.926 434.548 45.87 431.093 48.38 C 436.434 53.087 441.768 60.621 439.572 74.751 C 437.372 88.881 425.756 102.693 405.351 102.693 L 360.454 102.693 Z" style="fill: rgb(255, 255, 255);"/>
    <path id="path5256" d="M 284.502 135.059 C 283.591 132.298 281.183 129.667 281.183 129.667 C 281.183 129.667 277.568 124.973 270.463 123.37 C 264.38 122.097 259.601 124.779 259.601 124.779 C 259.601 124.779 255.262 126.517 252 130.114 C 246.805 135.113 245.311 142.412 245.311 142.412 C 245.311 142.412 243.32 148.766 246.473 153.799 L 249.9 157.945 C 254.737 161.982 259.905 162.392 259.905 162.392 C 259.905 162.392 264.078 163.333 268.945 162.063 C 273.199 161.203 276.295 159.103 276.295 159.103 C 276.295 159.103 283.343 155.208 285.277 147.249 L 284.502 135.059 Z M 273.525 148.296 C 273.525 148.296 270.71 153.217 264.519 152.634 C 257.25 151.889 256.396 145.505 256.396 145.505 C 256.396 145.505 255.398 140.807 259.875 136.716 C 264.41 132.905 269.135 133.484 269.135 133.484 C 269.135 133.484 272.312 133.786 273.945 139.039 C 276.045 145.728 273.525 148.296 273.525 148.296" style="fill-opacity: 1; fill: rgb(255, 255, 255);"/>
    <path id="path5262" d="M 307.991 148.38 C 305.665 147.867 301.938 148.821 301.938 148.821 C 301.938 148.821 296.746 150.728 295.943 150.7 C 295.638 150.26 294.978 141.772 295.168 138.375 C 295.279 132.377 294.778 127.486 294.778 127.486 C 294.778 127.486 294.531 121.708 291.435 118.283 C 287.788 114.605 285.244 116.183 283.781 117.064 C 280.269 120.217 281.901 124.055 281.901 124.055 L 283.726 129.227 C 283.726 129.227 284.61 131.438 284.502 135.056 L 285.274 147.246 C 285.274 148.878 286.602 159.849 286.602 159.849 C 286.602 159.849 286.738 163.415 290.165 164.049 C 293.677 164.631 297.129 162.887 298.595 162.196 C 300.059 161.508 301.993 160.899 301.993 160.899 C 301.993 160.899 303.598 160.54 305.2 160.404 C 308.959 160.042 310.311 159.381 310.311 159.381 C 310.311 159.381 311.765 159.161 312.746 157.776 C 313.724 156.391 314.906 149.901 307.991 148.38" style="fill-opacity: 1; fill: rgb(255, 255, 255);"/>
    <path id="path5264" d="M 246.473 153.796 C 244.002 153.057 241.169 153.549 241.169 153.549 C 241.169 153.549 233.152 154.321 228.979 153.437 C 222.513 152.306 222.73 145.339 222.73 145.339 C 222.73 145.339 222.513 140.722 226.408 134.477 C 231.218 126.765 236.525 125.383 236.525 125.383 C 236.525 125.383 237.847 124.888 239.093 125.549 C 239.868 130.023 244.204 129.996 244.204 129.996 C 244.204 129.996 250.453 130.413 250.145 122.842 C 249.427 116.621 243.431 115.767 240.915 115.185 C 233.375 113.83 228.478 117.867 228.478 117.867 C 228.478 117.867 223.421 120.601 217.369 130.135 C 213.247 136.049 212.752 140.695 212.752 140.695 C 212.752 140.695 212.255 141.8 212.448 146.721 C 212.339 150.562 213.778 153.353 213.778 153.353 C 213.778 153.353 215.96 159.963 222.869 162.67 C 227.069 164.411 233.206 164.383 233.206 164.383 C 233.206 164.383 239.147 164.299 243.706 164.052 C 246.195 164.245 247.384 162.944 247.384 162.944 C 247.384 162.944 250.172 161.122 249.897 157.942 C 249.897 157.942 249.357 154.659 246.473 153.796" style="fill-opacity: 1; fill: rgb(255, 255, 255);"/>
    <path id="path5258" d="M 346.88 133.593 C 342.046 125.691 333.532 124.502 333.532 124.502 C 333.532 124.502 330.822 123.588 325.02 124.36 C 314.131 126.436 310.344 134.809 310.344 134.809 C 310.344 134.809 306.446 140.943 307.994 148.38 L 312.752 157.776 C 316.261 161.065 317.697 161.065 317.918 161.261 C 322.561 163.361 327.95 162.145 327.95 162.145 C 327.95 162.145 334.751 161.481 340.969 156.644 C 345.941 152.996 348.099 147.635 348.099 147.635 L 348.76 140.439 L 346.88 133.593 L 346.88 133.593 Z M 333.643 149.732 C 325.823 154.433 320.899 149.291 320.899 149.291 C 320.899 149.291 318.717 147.852 318.246 143.486 C 317.911 138.429 322.947 135.804 322.947 135.804 C 322.947 135.804 325.599 134.172 328.915 134.422 C 332.231 134.67 333.278 134.45 335.964 136.441 C 338.504 138.734 338.338 140.418 338.338 140.418 C 338.338 140.418 339.252 146.114 333.643 149.732" style="fill-opacity: 1; fill: rgb(255, 255, 255);"/>
    <path id="path5260" d="M 348.096 147.635 C 348.096 147.635 348.262 152.055 347.571 153.135 C 346.632 155.151 346.771 157.112 346.771 157.112 C 346.771 157.112 346.132 163.083 353.047 164.076 C 357.796 164.049 358.375 160.096 358.46 158.409 C 358.734 157.085 358.626 150.921 358.626 150.921 L 364.79 155.95 C 364.79 155.95 369.265 159.71 371.896 161.891 C 374.632 164.046 375.32 164.435 375.32 164.435 C 375.32 164.435 375.902 165.123 377.999 164.875 C 379.689 164.905 381.237 163.382 381.237 163.382 C 381.237 163.382 383.195 161.949 383.693 159.432 C 384.299 156.448 381.979 154.982 381.979 154.982 C 381.979 154.982 373.416 148.072 367.611 143.317 C 371.506 141.19 373.386 139.727 373.386 139.727 C 373.386 139.727 378.805 136.133 379.964 130.633 C 381.569 124.577 377.007 122.203 377.007 122.203 C 377.007 122.203 374.159 120.16 371.757 119.08 C 365.701 116.123 360.065 116.729 360.065 116.729 C 360.065 116.729 352.051 116.177 346.829 122.619 C 344.424 125.742 345.917 129.833 345.917 129.833 C 345.917 129.833 346.213 130.488 346.883 133.59 C 348.223 139.835 348.096 147.635 348.096 147.635 L 348.096 147.635 Z M 358.599 135.361 L 358.074 128.15 C 358.074 128.15 363.131 128.038 365.231 128.397 C 369.379 129.031 369.156 130.195 369.156 130.195 C 369.156 130.195 369.017 131.659 365.867 133.098 C 362.443 134.754 358.599 135.361 358.599 135.361" style="fill-opacity: 1; fill: rgb(255, 255, 255);"/>
  </g>
</svg>
